resources/svg/redwoodjs-o.svg

<svg width="15" height="15" viewBox="0 0 15 15" fill="none" xmlns="http://www.w3.org/2000/svg">
<path d="M7.5 0.5L7.74807 0.0658784C7.59435 -0.0219595 7.40565 -0.0219595 7.25193 0.0658784L7.5 0.5ZM4 2.5L3.75193 2.06588C3.69723 2.09714 3.64892 2.13845 3.60957 2.18765L4 2.5ZM2 5L1.60957 4.68765C1.56815 4.73942 1.53745 4.7989 1.51924 4.86264L2 5ZM1 8.5L0.519238 8.36264C0.484872 8.48292 0.496842 8.61172 0.552786 8.72361L1 8.5ZM3 12.5L2.55279 12.7236C2.60465 12.8273 2.69096 12.9098 2.79693 12.9569L3 12.5ZM7.5 14.5L7.29693 14.9569C7.42621 15.0144 7.57379 15.0144 7.70307 14.9569L7.5 14.5ZM12 12.5L12.2031 12.9569C12.309 12.9098 12.3954 12.8273 12.4472 12.7236L12 12.5ZM14 8.5L14.4472 8.72361C14.5032 8.61172 14.5151 8.48292 14.4808 8.36264L14 8.5ZM13 5L13.4808 4.86264C13.4626 4.7989 13.4318 4.73942 13.3904 4.68765L13 5ZM11 2.5L11.3904 2.18765C11.3511 2.13845 11.3028 2.09714 11.2481 2.06588L11 2.5ZM7.25193 0.0658784L3.75193 2.06588L4.24807 2.93412L7.74807 0.934122L7.25193 0.0658784ZM3.60957 2.18765L1.60957 4.68765L2.39043 5.31235L4.39043 2.81235L3.60957 2.18765ZM1.51924 4.86264L0.519238 8.36264L1.48076 8.63736L2.48076 5.13736L1.51924 4.86264ZM0.552786 8.72361L2.55279 12.7236L3.44721 12.2764L1.44721 8.27639L0.552786 8.72361ZM2.79693 12.9569L7.29693 14.9569L7.70307 14.0431L3.20307 12.0431L2.79693 12.9569ZM7.70307 14.9569L12.2031 12.9569L11.7969 12.0431L7.29693 14.0431L7.70307 14.9569ZM12.4472 12.7236L14.4472 8.72361L13.5528 8.27639L11.5528 12.2764L12.4472 12.7236ZM14.4808 8.36264L13.4808 4.86264L12.5192 5.13736L13.5192 8.63736L14.4808 8.36264ZM13.3904 4.68765L11.3904 2.18765L10.6096 2.81235L12.6096 5.31235L13.3904 4.68765ZM11.2481 2.06588L7.74807 0.0658784L7.25193 0.934122L10.7519 2.93412L11.2481 2.06588ZM3.23682 2.92513L13.7368 9.42513L14.2632 8.57487L3.76318 2.07487L3.23682 2.92513ZM11.2368 2.07487L0.736823 8.57487L1.26318 9.42513L11.7632 2.92513L11.2368 2.07487ZM1.64645 5.35355L7.14645 10.8536L7.85355 10.1464L2.35355 4.64645L1.64645 5.35355ZM7.27639 10.9472L11.2764 12.9472L11.7236 12.0528L7.72361 10.0528L7.27639 10.9472ZM12.6464 4.64645L7.14645 10.1464L7.85355 10.8536L13.3536 5.35355L12.6464 4.64645ZM7.27639 10.0528L3.27639 12.0528L3.72361 12.9472L7.72361 10.9472L7.27639 10.0528Z" fill="black"/>
</svg>

<svg viewBox="0 0 15 15" fill="none" xmlns="http://www.w3.org/2000/svg" fill="currentColor"><path d="M7.5.5l.248-.434a.5.5 0 00-.496 0L7.5.5zM4 2.5l-.248-.434a.5.5 0 00-.142.122L4 2.5zM2 5l-.39-.312a.5.5 0 00-.09.175L2 5zM1 8.5l-.48-.137a.5.5 0 00.033.36L1 8.5zm2 4l-.447.224a.5.5 0 00.244.233L3 12.5zm4.5 2l-.203.457a.5.5 0 00.406 0L7.5 14.5zm4.5-2l.203.457a.5.5 0 00.244-.233L12 12.5zm2-4l.447.224a.5.5 0 00.034-.361L14 8.5zM13 5l.48-.137a.5.5 0 00-.09-.175L13 5zm-2-2.5l.39-.312a.499.499 0 00-.142-.122L11 2.5zM7.252.066l-3.5 2 .496.868 3.5-2-.496-.868zM3.61 2.188l-2 2.5.78.624 2-2.5-.78-.624zM1.52 4.863l-1 3.5.96.274 1-3.5-.96-.274zm-.967 3.86l2 4 .894-.447-2-4-.894.448zm2.244 4.234l4.5 2 .406-.914-4.5-2-.406.914zm4.906 2l4.5-2-.406-.914-4.5 2 .406.914zm4.744-2.233l2-4-.894-.448-2 4 .894.448zm2.034-4.361l-1-3.5-.962.274 1 3.5.962-.274zm-1.09-3.675l-2-2.5-.781.624 2 2.5.78-.624zm-2.143-2.622l-3.5-2-.496.868 3.5 2 .496-.868zm-8.011.86l10.5 6.5.526-.851-10.5-6.5-.526.85zm8-.851l-10.5 6.5.526.85 10.5-6.5-.526-.85zm-9.59 3.279l5.5 5.5.707-.708-5.5-5.5-.708.708zm5.63 5.593l4 2 .447-.894-4-2-.448.894zm5.37-6.3l-5.5 5.5.707.707 5.5-5.5-.708-.708zm-5.37 5.406l-4 2 .447.894 4-2-.448-.894z" fill="currentColor"/></svg>
